icons/square/48/alexandra.svg

<?xml version="1.0" encoding="UTF-8" standalone="no"?>
<!-- Created with Inkscape (http://www.inkscape.org/) -->
<svg id="svg4340" xmlns:rdf="http://www.w3.org/1999/02/22-rdf-syntax-ns#" xmlns="http://www.w3.org/2000/svg" height="48" viewBox="0 0 48 48.000001" width="48" version="1.1" xmlns:cc="http://creativecommons.org/ns#" xmlns:xlink="http://www.w3.org/1999/xlink" xmlns:dc="http://purl.org/dc/elements/1.1/">
 <defs id="defs4342">
  <linearGradient id="linearGradient4220" gradientUnits="userSpaceOnUse" gradientTransform="translate(-48 .00221)" x2="47" x1="1">
   <stop id="stop7-67" style="stop-color:#3d3d3d" offset="0"/>
   <stop id="stop9-36" style="stop-color:#474747" offset="1"/>
  </linearGradient>
 </defs>
 <metadata id="metadata4345">
  <rdf:RDF>
   <cc:Work rdf:about="">
    <dc:format>image/svg+xml</dc:format>
    <dc:type rdf:resource="http://purl.org/dc/dcmitype/StillImage"/>
    <dc:title/>
   </cc:Work>
  </rdf:RDF>
 </metadata>
 <g id="g21">
  <path id="path23" style="opacity:.02" d="m1 43v0.25c0 2.216 1.784 4 4 4h38c2.216 0 4-1.784 4-4v-0.25c0 2.216-1.784 4-4 4h-38c-2.216 0-4-1.784-4-4zm0 0.5v0.5c0 2.216 1.784 4 4 4h38c2.216 0 4-1.784 4-4v-0.5c0 2.216-1.784 4-4 4h-38c-2.216 0-4-1.784-4-4z"/>
  <path id="path25" style="opacity:.05" d="m1 43.25v0.25c0 2.216 1.784 4 4 4h38c2.216 0 4-1.784 4-4v-0.25c0 2.216-1.784 4-4 4h-38c-2.216 0-4-1.784-4-4z"/>
  <path id="path27" style="opacity:.1" d="m1 43v0.25c0 2.216 1.784 4 4 4h38c2.216 0 4-1.784 4-4v-0.25c0 2.216-1.784 4-4 4h-38c-2.216 0-4-1.784-4-4z"/>
 </g>
 <rect id="rect4218" style="fill:url(#linearGradient4220)" rx="4" transform="rotate(-90)" height="46" width="46" y="1" x="-47"/>
 <g id="g57">
  <g id="g59" transform="translate(0,-1004.4)">
   <path id="path61" style="opacity:.1" d="m1 1043.4v4c0 2.216 1.784 4 4 4h38c2.216 0 4-1.784 4-4v-4c0 2.216-1.784 4-4 4h-38c-2.216 0-4-1.784-4-4z"/>
  </g>
 </g>
 <path id="path35" style="fill-opacity:0.098;fill-rule:evenodd" d="m26.75 11c2.623 0 4.75 2.127 4.75 4.75-0.003 1.803-1.026 3.45-2.643 4.25h1.143c0.554 0 1 0.446 1 1v1.5l7-2.5v13l-7-2.5v1.5c0 0.554-0.446 1-1 1h-16c-0.554 0-1-0.446-1-1v-11c0-0.554 0.446-1 1-1h1.135c-1.613-0.802-2.634-2.448-2.635-4.25 0-2.623 2.127-4.75 4.75-4.75s4.75 2.127 4.75 4.75c-0.003 1.803-1.026 3.45-2.643 4.25h5.277c-1.613-0.802-2.634-2.448-2.635-4.25 0-2.623 2.127-4.75 4.75-4.75"/>
 <path id="path37" style="fill:#14ca78;fill-rule:evenodd" d="m26.75 10a4.75 4.75 0 0 1 4.75 4.75 4.75 4.75 0 0 1 -2.643 4.25h1.143c0.554 0 1 0.446 1 1v1.5l7-2.5v13l-7-2.5v1.5c0 0.554-0.446 1-1 1h-16c-0.554 0-1-0.446-1-1v-11c0-0.554 0.446-1 1-1h1.135a4.75 4.75 0 0 1 -2.635 -4.25 4.75 4.75 0 0 1 4.75 -4.75 4.75 4.75 0 0 1 4.75 4.75 4.75 4.75 0 0 1 -2.643 4.25h5.277a4.75 4.75 0 0 1 -2.634 -4.25 4.75 4.75 0 0 1 4.75 -4.75"/>
</svg>

<svg xmlns="http://www.w3.org/2000/svg" height="48" viewBox="0 0 48 48.000001" width="48">
  <defs>
    <linearGradient id="a" gradientUnits="userSpaceOnUse" gradientTransform="translate(-48 .002)" x2="47" x1="1">
      <stop offset="0" stop-color="#3d3d3d"/>
      <stop offset="1" stop-color="#474747"/>
    </linearGradient>
  </defs>
  <path d="M1 43v.25c0 2.216 1.784 4 4 4h38c2.216 0 4-1.784 4-4V43c0 2.216-1.784 4-4 4H5c-2.216 0-4-1.784-4-4zm0 .5v.5c0 2.216 1.784 4 4 4h38c2.216 0 4-1.784 4-4v-.5c0 2.216-1.784 4-4 4H5c-2.216 0-4-1.784-4-4z" opacity=".02"/>
  <path d="M1 43.25v.25c0 2.216 1.784 4 4 4h38c2.216 0 4-1.784 4-4v-.25c0 2.216-1.784 4-4 4H5c-2.216 0-4-1.784-4-4z" opacity=".05"/>
  <path d="M1 43v.25c0 2.216 1.784 4 4 4h38c2.216 0 4-1.784 4-4V43c0 2.216-1.784 4-4 4H5c-2.216 0-4-1.784-4-4z" opacity=".1"/>
  <rect rx="4" transform="rotate(-90)" height="46" width="46" y="1" x="-47" fill="url(#a)"/>
  <path d="M1 39v4c0 2.216 1.784 4 4 4h38c2.216 0 4-1.784 4-4v-4c0 2.216-1.784 4-4 4H5c-2.216 0-4-1.784-4-4z" opacity=".1"/>
  <path d="M26.75 11a4.75 4.75 0 0 1 4.75 4.75A4.75 4.75 0 0 1 28.857 20H30c.554 0 1 .446 1 1v1.5l7-2.5v13l-7-2.5V32c0 .554-.446 1-1 1H14c-.554 0-1-.446-1-1V21c0-.554.446-1 1-1h1.135a4.75 4.75 0 0 1-2.635-4.25 4.75 4.75 0 0 1 9.5 0A4.75 4.75 0 0 1 19.357 20h5.277a4.75 4.75 0 0 1-2.635-4.25 4.75 4.75 0 0 1 4.75-4.75" fill-opacity=".098" fill-rule="evenodd"/>
  <path d="M26.75 10a4.75 4.75 0 0 1 4.75 4.75A4.75 4.75 0 0 1 28.857 19H30c.554 0 1 .446 1 1v1.5l7-2.5v13l-7-2.5V31c0 .554-.446 1-1 1H14c-.554 0-1-.446-1-1V20c0-.554.446-1 1-1h1.135a4.75 4.75 0 0 1-2.635-4.25A4.75 4.75 0 0 1 17.25 10 4.75 4.75 0 0 1 22 14.75 4.75 4.75 0 0 1 19.357 19h5.277A4.75 4.75 0 0 1 22 14.75 4.75 4.75 0 0 1 26.75 10" fill="#14ca78" fill-rule="evenodd"/>
</svg>
